X:9
T:Hand Me Down the Tackle
T:aka- Tom Steele
R:reel
O:Irish
N:also played ing key D
D:Highland Classic, Carl MacKenzie, 2007 S:http://www.cranfordpub.com/recordings/carl.htm
Z:psc -  http://www.cranfordpub.com
L:1/8
Q:333
M:C|
K:C
GC C/C/C EGGA|cgec dcAc|GC C/C/C EGGc|AFDE FGAc|
GC C/C/C EGGA|cgec dcAG|c2 Bc AGEG|[1ADDE FGAc:|[2ADDE FGAB||
|:c3 e gecg|ecgc dcAB|cBce gece|dDDE FGAB|
c/c/c ec gc ac|gc ec f2 ef|gafg ecGc|[1AFDE FGAB:|[2AFDE FGAc|]
